X:1
T:Will You Be Ready to Go?
T:Will You Be Ready to Go?
T:Alfred Elisha Helton
T:Leroy N. Keller, 1922
T:Public Domain Courtesy of the Cyber Hymnal™
T:Public Domain Courtesy of the Cyber Hymnal™
C:Alfred Elisha Helton
Z:Public Domain
Z:Courtesy of the Cyber Hymnal™
%%score ( 1 2 ) ( 3 4 )
L:1/8
Q:1/4=98
M:4/4
K:Bb
V:1 treble 
V:2 treble 
V:3 bass 
V:4 bass 
V:1
 [DF]2 [DF]>[DF] [EG] [DF]2 [DB] | [Fd]2 [Fd]>[Fd] [Fc] [FB]3 | [EG]2 [EG]>[GB] [EG] [DF]2 [FB] | %3
w: 1.~Will you be rea- dy to|wel- come your Sav- ior|As you be- hold Him de-|
w: 2.~Will His re- turn- ing to|you mean a bless- ing,|Or will His com- ing o’er-|
w: 3.~Je- sus has prom- ised His|joint heir to make me,|If I am faith- ful to|
 [Fc]2 [=Ec][Ed] [Fc]4 | [Fd]2 [Fd]>[Fd] [Ge] [Fd]2 [DB] | [Fd]2 [Fd]>[Fd] [Fc] [FB]3 | %6
w: scend from a- bove,|Robed in white gar- ments of|in- fi- nite beau- ty?|
w: whelm you with woe?|Will you be trust- ing, and|His name con- fess- ing,|
w: Him here be- low;|All will be well, since to|Him He will take me,|
 [EG]2 [EG]>[GB] [EG] [DF]2 [FB] | [Fd] !fermata![Fd]2 [Ec] !fermata![DB]4 || %8
w: Will you be spot- less, your|heart filled with love?|
w: Anx- ious- ly wait- ing and|rea- dy to go?|
w: Strong in His grace, I’ll be|rea- dy to go.|
"^Refrain" [EG]2 [EG]>[GB] [EG] [EF]2 [FB] | B3 ([Gc] [Fd]4) | [Fd]2 [Fd]>[Fd] [Ec] [DB]2 [Fd] | %11
w: |||
w: Will you be rea- dy to|go, Will *|* you be rea- dy to|
w: |||
 c6 [DF][DF] | [DB]2 [DB]2 [DB][Ec][Fd][FB] | G3 ([EB] [Ge]4) | [Fd]2 [DB]>[DB] [EG] [DF]2 [FB] | %15
w: ||||
w: go? If the|Lord should call for you to-|day, Will *|* you be rea- dy, be|
w: ||||
 [Fd] !fermata![Fd]2 [Ec] !fermata![DB]4 |] %16
w: |
w: rea- dy to go?|
w: |
V:2
 x8 | x8 | x8 | x8 | x8 | x8 | x8 | x8 || x8 | D2 G x5 | x8 | (F2 FF F2) x2 | x8 | E2 E x5 | x8 | %15
 x8 |] %16
V:3
 [B,,B,]2 [B,,B,]>[B,,B,] [B,,B,] [B,,B,]2 [B,,F,] | [B,,B,]2 [B,,B,]>[B,,B,] [D,B,] [D,B,]3 | %2
w: ~ ~ ~ ~ ~ ~|~ ~ ~ ~ ~|
 [E,B,]2 [E,B,]>[E,B,] [B,,B,] [B,,B,]2 [D,B,] | [F,A,]2 [C,G,][C,B,] [F,A,]4 | %4
w: ~ ~ ~ ~ ~ ~|~ ~ ~ ~|
 [B,,B,]2 [B,,B,]>[B,,B,] [B,,B,] [B,,B,]2 [B,,F,] | [B,,B,]2 [B,,B,]>[B,,B,] [D,B,] [D,B,]3 | %6
w: ~ ~ ~ ~ ~ ~|~ ~ ~ ~ ~|
 [E,B,]2 [E,B,]>[E,B,] [B,,B,] [B,,B,]2 [D,B,] | %7
w: ~ ~ ~ ~ ~ ~|
 [F,B,] !fermata![F,B,]2 [F,A,] !fermata![B,,B,]4 || [E,B,]2 [E,B,]>[E,B,] [F,A,] [F,A,]2 [D,B,] | %9
w: ~ ~ ~ ~|~ ~ ~ ~ ~ be|
 [G,B,]2 [E,B,][E,B,] [B,,B,]4 | [B,,B,]2 [B,,B,]>[B,,B,] [B,,F,] [B,,F,]2 [B,,B,] | %11
w: rea- dy to go,|~ ~ ~ ~ ~ be|
 [F,A,]2 [F,A,][F,A,] [F,A,]2 [B,,B,][B,,B,] | [B,,F,]2 [B,,F,]2 [B,,F,][B,,F,][B,,B,][D,B,] | %13
w: rea- dy to go? ~ ~|~ ~ ~ ~ ~ ~|
 [E,B,]2 [E,B,][E,G,] [E,B,]4 | [B,,B,]2 [B,,F,]>[B,,F,] [B,,B,] [B,,B,]2 [D,B,] | %15
w: ~ call to- day,||
 [F,B,] [F,B,]2 F, !fermata![B,,F,]4 |] %16
w: |
V:4
 x8 | x8 | x8 | x8 | x8 | x8 | x8 | x8 || x8 | x8 | x8 | x8 | x8 | x8 | x8 | x3 F, x4 |] %16

